X: 3404
M: 6/8
L: 1/8
K: G
uG |\
|: d |\
ded g2f | e3-e2e | efe a2g | f3- fga |\
b2g a2f | gfe d2B | cde dgf | g3- g2 :|



